X: 10841
Q: "Slow"
M: 3/4
L: 1/8
K: G
(D2 E2) G2 | ~G4 GA | B2 (g2 f2) | {f}e4 (fg) |\
(ed) (cB) (AG) | G4 GA | ~B2 (cB)(AG) | E4 G>E |
(D2 E2) G2 | TG4 GA | (B2 g2) f2 | {f}e4 (fg) |\
(ed) (cB) (AG) | G2 E2 (G/A/B) | {B}A2 G2 G2 | G4 :|
|:(d/e/f) |\
(g2 f2) g2 | e2 f2 g2 | a2 (gf) Te>d | d4 d/e/f |\
g2 f2 g2 | d2 (ed) (cB) | B2 ((3GAB) ((3BAG) | E4 GE |
(ed) (cB) (A>G) | (G2 E2) (G/A/B) | {B}A2 G2 G2 | G4 :|


